X:2949
T:Chez Jutier - bourree
C:Frederic Paris
Z:abc transcription Simon Wascher
N:please mail errors to: simon.wascher@chello.at
M:2/4
L:1/8
K:G
|:A3/2G/2 AB|c3B/2A/2|G3/2F/2 GA|E4|
A3/2G/2 AB|cA d3/2c/2|B/2A/2G AF|G4:|
|:A3/2B/2 EF|DE/2F/2 GF/2G/2|A3/2B/2 EF|DE/2F/2 G2|
A3/2B/2 EF|DE/2F/2 GF/2G/2|A3/2B/2 cA|dA G2:|


